Obsidian-SemiLight/actions/24s/zoom-out-x.svg

<svg viewBox="0 0 24 24" xmlns="http://www.w3.org/2000/svg"><path d="m4 4v2h1v-1h1v-1zm4 0v1h1v1h1v-2zm5 0v1h6v6 2 6h-6v1h7v-1-6-2-7h-1zm-9 4v2h2v-1h-1v-1zm5 0v1h-1v1h2v-2zm-2.171875 5.669922-2.1210938 2.121094-.7070312.707031 2.828125 2.830078.7070312-.707031-1.6210937-1.623047h4.6562495v-1h-4.6562495l1.6210937-1.621094z" fill="#4d4d4d"/></svg>

<svg xmlns="http://www.w3.org/2000/svg" viewBox="0 0 24 24">
  <defs id="defs3051">
    <style type="text/css" id="current-color-scheme">
      .ColorScheme-Text {
        color:#4d4d4d;
      }
      </style>
  </defs>
 <path style="fill:currentColor;fill-opacity:1;stroke:none" 
     d="M 4 4 L 4 6 L 5 6 L 5 5 L 6 5 L 6 4 L 4 4 z M 8 4 L 8 5 L 9 5 L 9 6 L 10 6 L 10 4 L 8 4 z M 13 4 L 13 5 L 19 5 L 19 11 L 19 13 L 19 19 L 13 19 L 13 20 L 20 20 L 20 19 L 20 13 L 20 11 L 20 4 L 19 4 L 13 4 z M 4 8 L 4 10 L 6 10 L 6 9 L 5 9 L 5 8 L 4 8 z M 9 8 L 9 9 L 8 9 L 8 10 L 10 10 L 10 8 L 9 8 z M 6.828125 13.669922 L 4.7070312 15.791016 L 4 16.498047 L 6.828125 19.328125 L 7.5351562 18.621094 L 5.9140625 16.998047 L 10.570312 16.998047 L 10.570312 15.998047 L 5.9140625 15.998047 L 7.5351562 14.376953 L 6.828125 13.669922 z "
     class="ColorScheme-Text"
     />
</svg>
